X:1
T:Standin In The Need of Prayer
T:Down by the river
T:Copyright 1881 by The Riverside Press
T:Rodeheaver's Plantation Melodies
T:Rodeheaver's Plantation Melodies
Z:Rodeheaver's Plantation Melodies
%%score [ 1 2 3 4 ]
L:1/8
M:4/4
K:D
V:1 treble nm="Soprano" snm="S."
V:2 treble nm="Alto" snm="A."
V:3 bass nm="Tenor" snm="T."
V:4 bass nm="Bass" snm="B."
V:1
 BA | A3 B AF D2 | E2 E>E F A2 A | A3 B AF D2 | EE/E/ F<E D3 :| A | A/-A/A/-A/ AA/-A/ AF D2 | %7
w: Oh, we'll|wait till Je- sus comes.|* * * * * We'll|wait till Je- sus comes.||Oh|hal- * le- * lu- jah- * to the Lamb.|
w: |||||Oh|we- * are- * pil- grims- * here be- low.|
w: |||||Oh|lit- tle did I think that He was do nigh.|
 E2 E>E F A2 A | AAAA AF D2 | EE/E/ F<E D2!D.C.! |] %10
w: * * * * * The|Lord is on the giv- ing Hand.||
w: * * * * * Oh|soon to glo- ry we will go.||
w: * * * * * He|spake and make me laugh and cry.||
V:2
 z2 | z8 | C2 C>C D F2 z | z8 | CC/C/ D<C D3 :| z | z8 | C2 C>C D F2 F | AAAA AF D2 | %9
w: ||Down by the ri- ver.||Dwon by the ri- ver side.|||Down by the riv- er. *||
 CC/C/ D<C D2 |] %10
w: Down by the ri- ver side.|
V:3
 z2 | z8 | A,2 A,>A, A, A,2 z | z8 | A,A,/A,/ A,<A, F,3 :| z | z8 | A,2 A,>A, A, A,2 z | z8 | %9
 A,A,/A,/ A,<G, F,2 |] %10
V:4
 z2 | z8 | A,,2 A,,>A,, A,, D,2 D, | z8 | A,,A,,/A,,/ A,,<A,, D,3 :| z | z8 | %7
 A,,2 A,,>A,, D, D,2 z |"_2." z8 | A,,A,,/A,,/ A,,<A,, D,2 |] %10

